X:1
T:I Will Make the Darkness Light
T:Charles Price Jones, 1916
T:I Will Make the Darkness Light
T:Public Domain
T:Public Domain
C:Charles Price Jones, 1916
Z:Public Domain
%%score ( 1 2 ) 3
L:1/8
M:4/4
K:F
V:1 treble 
V:2 treble 
V:3 bass 
V:1
 CC | [CF][CF][CF][CG] [FA]2 [CF]2 | [Fc]2 [Fc]4 CC | [CF][CF][CF][CG] [FA]2 [CF]2 | %4
w: 1.~I will|dark- ness light be- fore thee,|What is wrong I’ll|right be- fore thee, All thy|
w: 2.~With an|last- ing love I’ll love thee,|Though with tri- als|sore I’ll prove thee, But there’s|
w: 3.~Al- though|in his rage would tear thee,|And with all his|arts would snare thee, Ev- en|
w: 4.~I will|dark- ness light be- fore thee,|I will make the|straight be- fore thee, I will|
 [B,D]2 [A,C]4 CC | [CF][CF][CF][CG] [FA]2 [CF]2 | [Ac]2 [Ac]4 F[FG] | [FA] [FA]3 [EG]2 [EG]2 | %8
w: bat- tles I will|fore thee, And the high place|I’ll bring down. *||
w: no- thing that can|move thee, And the high place|I’ll bring down. *||
w: down to thine old|bear thee, And the high place|I’ll bring down. *||
w: spread My wings pro-|o’er thee, And the high place|I’ll bring down. *||
 [CF]6 ||"^Refrain" [Fc][Fc] | [Af][Af][Af][Af] [Af]2 [Fc]2 | [Fd]2 [Fc]4 [Fc][Fc] | %12
w: ||||
w: ||||
w: ||||
w: ||||
 [Af][Af][Af][Af] [Af]2 [Fc]2 | [FA]2 [EG]4 [Ec][FA] | [CF][CF][CF][CG] [FA]2 [CF]2 | %15
w: |||
w: |||
w: |||
w: |||
 [Ac]2 [Ac]4 F[FG] | [FA] [FA]3 [EG]2 [EG]2 | [CF]6 |] %18
w: |||
w: |||
w: |||
w: |||
V:2
 CC | x8 | x6 CC | x8 | x6 CC | x8 | x8 | x8 | x6 || x2 | x8 | x8 | x8 | x8 | x8 | x6 F x | x8 | %17
w: make the||make it||fight be-|||||||||||||
w: ev- er-||deep and||hurt or|||||||||||||
w: Sa- tan||win- ning||age I’ll|||||||||||||
w: make the||crook- ed||tect- ing|||||||||||||
 x6 |] %18
w: |
w: |
w: |
w: |
V:3
 [F,A,][F,A,] | [F,A,][F,A,][F,A,][F,B,] [F,C]2 [F,A,]2 | [F,A,]2 [F,A,]4 [C,B,][C,B,] | %3
w: ~ ~|~ ~ ~ ~ ~ ~|~ ~ ~ ~|
 [F,A,][F,A,][F,A,][F,B,] [F,C]2 [A,,B,]2 | [B,,F,]2 [F,,F,]4 [C,B,][C,B,] | %5
w: ~ ~ ~ ~ ~ ~|~ ~ ~ ~|
 [F,A,][F,A,][F,A,][F,B,] [F,C]2 [F,A,]2 | [F,F]2 [F,F]4 [A,,C][B,,D] | %7
w: ~ ~ ~ ~ ~ ~|~ ~ ~ ~|
 [C,C] [C,C]3 [C,B,]2 [C,B,]2 | [F,A,]6 || [F,A,][F,A,] | [F,C][F,C][F,C][F,C] [F,C]2 [F,A,]2 | %11
w: ~ ~ ~ ~|~|When thou|walk- est by the way I’ll|
 [F,B,]2 [F,A,]4 [F,A,][F,A,] | [F,C][F,C][F,C][F,C] [F,C]2 [F,A,]2 | [C,C]2 [C,C]4 [C,G,][C,C] | %14
w: lead thee, On the|fat- ness of the land I’ll|feed thee, And a|
 [F,A,][F,A,][F,A,][F,B,] [F,C]2 [F,A,]2 | [F,F]2 [F,F]4 [A,,C][B,,D] | %16
w: man- sion in the sky I’ll|deed thee, And the|
 [C,C] [C,C]3 [C,B,]2 [C,B,]2 | [F,A,]6 |] %18
w: high place I’ll bring|down.|

